X: 28797
T: My Martini
R: reel
M: 4/4
K: Adorian
AB|:c/d/c Bc AGED|{G}E/D/E AE GABd|cdBc AGEG|DG{A}GF GedB|
c/d/c Bc AGED|EAAG ABcd|ea{b}af gedB|1 cdBc A^GAB:|2 cdBc ABcd||
|:ea b/a/g agef|{a}gedB AGBd|G/G/G dG edef|{a}gedB AGBd|
ea b/a/g agef|{a}gedB AGAB|c/d/c Ac Bdef|1 {a}gedB {d}cAAd:|2 {a}gedB {d}cAA2||

